X:0754
T:Lady Charlotte Campbell's Strathspey.
M:C
L:1/8
Q:1/4=120
I: :: ||
Z:Jack Campin * www.campin.me.uk * 2009
K:G
c|d>cBG       AcTB>c|   d>cBG      EAFD|{Bc}d>c``````BG Ac Bc/d/|ecAF     G2       G       :|
d|g/f/g/a/ gd Bg`dg |{a}gf/e/ Tf>g aAAf|    g/f/g/a/ gd BgdB    |e>cAF {F}G2       z
d|g/f/g/a/ gd Bg`dg |{a}gf/e/ Tf>g aAAf|    gdbf        gdec    |BdDF     G/F/G/A/ B/A/B/c/|]
% or
%                                                                BdDF    TG```A````B>````c ||

